.local/share/icons/Gruvbox-Plus-Dark/actions/24/vm-snapshot-autoprotect-keep.svg

<svg xmlns="http://www.w3.org/2000/svg" width="24" height="24" version="1.1">
 <defs>
  <style id="current-color-scheme" type="text/css">
   .ColorScheme-Text { color:#555555; } .ColorScheme-Highlight { color:#4285f4; } .ColorScheme-NeutralText { color:#ff9800; } .ColorScheme-PositiveText { color:#4caf50; } .ColorScheme-NegativeText { color:#f44336; }
  </style>
 </defs>
 <path style="fill:currentColor" class="ColorScheme-Text" d="M 8.5,4 C 7.132132,4 6,5.1321324 6,6.5 V 9.050781 C 4.866938,9.28618 4,10.303116 4,11.5 v 6 C 4,18.867868 5.132132,20 6.5,20 h 6 c 0.338022,0 0.661266,-0.07055 0.957031,-0.195312 C 12.91982,19.308688 12.51156,18.689262 12.267578,18 H 6.5 C 6.205537,18 6,17.794463 6,17.5 v -6 C 6,11.205537 6.205537,11 6.5,11 h 2.5 2 1.5 c 0.294463,0 0.5,0.205537 0.5,0.5 v 2.185547 c 0.522581,-0.648651 1.214946,-1.139527 2,-1.417969 V 11.5 C 15,10.132132 13.867868,9 12.5,9 h 5 A 2.5,2.5 0 0 1 15,6.5 V 7 H 11.5 C 10.303116,7 9.2861799,7.8669384 9.0507812,9 H 8 V 6.5 C 8,6.2055368 8.2055368,6 8.5,6 h 6 C 14.794463,6 15,6.2055368 15,6.5 A 2.5,2.5 0 0 1 15.998047,4.5097656 C 15.578517,4.1916146 15.060152,4 14.5,4 Z m 9,5 C 17.794463,9 18,9.205537 18,9.5 v 2.757813 c 0.784592,0.277359 1.476907,0.766848 2,1.414062 V 9.5 C 20,8.939848 19.808385,8.421483 19.490234,8.001953 A 2.5,2.5 0 0 1 17.5,9 Z m 0,-4 A 1.5,1.5 0 0 0 16,6.5 1.5,1.5 0 0 0 17.5,8 1.5,1.5 0 0 0 19,6.5 1.5,1.5 0 0 0 17.5,5 Z m -1,8 C 14.567003,13 13,14.567003 13,16.5 13,18.432997 14.567003,20 16.5,20 18.432997,20 20,18.432997 20,16.5 20,14.567003 18.432997,13 16.5,13 Z m 0,1 c 1.380712,0 2.5,1.119288 2.5,2.5 0,1.380712 -1.119288,2.5 -2.5,2.5 -0.168147,-0.002 -0.335662,-0.02099 -0.5,-0.05664 v -1.029297 c 0.160578,0.05683 0.329663,0.08589 0.5,0.08594 0.828427,0 1.5,-0.671573 1.5,-1.5 0,-0.828427 -0.671573,-1.5 -1.5,-1.5 -0.653033,0 -1.20809,0.41751 -1.414062,1 H 16 l -2,2 V 16.5 16 h 0.05078 C 14.282446,14.858918 15.290548,14 16.5,14 Z"/>
</svg>

<svg width="24" height="24" version="1.1" xmlns="http://www.w3.org/2000/svg">
  <defs>
    <style id="current-color-scheme" type="text/css">.ColorScheme-Text { color:#ebdbb2; } .ColorScheme-Highlight { color:#458588; }</style>
  </defs>
  <path class="ColorScheme-Text" d="m8.5 4c-1.368 0-2.5 1.132-2.5 2.5v2.551c-1.133 0.2354-2 1.252-2 2.449v6c0 1.368 1.132 2.5 2.5 2.5h6c0.338 0 0.6613-0.07055 0.957-0.1953-0.5372-0.496-0.9455-1.115-1.189-1.805h-5.768c-0.2945 0-0.5-0.2055-0.5-0.5v-6c0-0.2945 0.2055-0.5 0.5-0.5h6c0.2945 0 0.5 0.2055 0.5 0.5v2.186c0.5226-0.6487 1.215-1.14 2-1.418v-0.7676c0-1.368-1.132-2.5-2.5-2.5h5a2.5 2.5 0 0 1-2.5-2.5v0.5h-3.5c-1.197 0-2.214 0.8669-2.449 2h-1.051v-2.5c0-0.2945 0.2055-0.5 0.5-0.5h6c0.2945 0 0.5 0.2055 0.5 0.5a2.5 2.5 0 0 1 0.998-1.99c-0.4195-0.3182-0.9379-0.5098-1.498-0.5098h-6zm9 5c0.2945 0 0.5 0.2055 0.5 0.5v2.758c0.7846 0.2774 1.477 0.7668 2 1.414v-4.172c0-0.5602-0.1916-1.079-0.5098-1.498a2.5 2.5 0 0 1-1.99 0.998zm0-4a1.5 1.5 0 0 0-1.5 1.5 1.5 1.5 0 0 0 1.5 1.5 1.5 1.5 0 0 0 1.5-1.5 1.5 1.5 0 0 0-1.5-1.5zm-1 8c-1.933 0-3.5 1.567-3.5 3.5s1.567 3.5 3.5 3.5 3.5-1.567 3.5-3.5-1.567-3.5-3.5-3.5zm0 1c1.381 0 2.5 1.119 2.5 2.5s-1.119 2.5-2.5 2.5c-0.1681-2e-3 -0.3357-0.02099-0.5-0.05664v-1.029c0.1606 0.05683 0.3297 0.08589 0.5 0.08594 0.8284 0 1.5-0.6716 1.5-1.5s-0.6716-1.5-1.5-1.5c-0.653 0-1.208 0.4175-1.414 1h0.9141l-2 2v-2h0.05078c0.2317-1.141 1.24-2 2.449-2z" fill="currentColor"/>
</svg>
